svgs/duotone/envelope-circle-check.svg

<svg xmlns="http://www.w3.org/2000/svg" viewBox="0 0 640 512"><!--! Font Awesome Pro 6.2.0 by @fontawesome - https://fontawesome.com License - https://fontawesome.com/license (Commercial License) Copyright 2022 Fonticons, Inc. --><path d="M0 112C0 85.5 21.5 64 48 64H464c26.5 0 48 21.5 48 48c0 15.1-7.1 29.3-19.2 38.4l-13.9 10.4c-66.6 6.4-122.4 50-146.3 109.8l-57.4 43c-11.4 8.5-27 8.5-38.4 0L19.2 150.4C7.1 141.3 0 127.1 0 112zM320.8 319.4c-.5 5.5-.8 11-.8 16.6c0 42.5 15.1 81.6 40.2 112H64c-35.3 0-64-28.7-64-64V176L217.6 339.2c22.8 17.1 54 17.1 76.8 0l26.4-19.8z" class="fa-secondary"/></svg>

<svg xmlns="http://www.w3.org/2000/svg" viewBox="0 0 640 512"><!--! Font Awesome Pro 6.2.0 by @fontawesome - https://fontawesome.com License - https://fontawesome.com/license (Commercial License) Copyright 2022 Fonticons, Inc. --><defs><style>.fa-secondary{opacity:.4}</style></defs><path class="fa-primary" d="M352 336C352 256.5 416.5 192 496 192C575.5 192 640 256.5 640 336C640 415.5 575.5 480 496 480C416.5 480 352 415.5 352 336zM563.3 315.3C569.6 309.1 569.6 298.9 563.3 292.7C557.1 286.4 546.9 286.4 540.7 292.7L480 353.4L451.3 324.7C445.1 318.4 434.9 318.4 428.7 324.7C422.4 330.9 422.4 341.1 428.7 347.3L468.7 387.3C474.9 393.6 485.1 393.6 491.3 387.3L563.3 315.3z"/><path class="fa-secondary" d="M0 112C0 85.49 21.49 64 48 64H464C490.5 64 512 85.49 512 112C512 127.1 504.9 141.3 492.8 150.4L478.9 160.8C412.3 167.2 356.5 210.8 332.6 270.6L275.2 313.6C263.8 322.1 248.2 322.1 236.8 313.6L19.2 150.4C7.113 141.3 0 127.1 0 112H0zM320 336C320 378.5 335.1 417.6 360.2 448H64C28.65 448 0 419.3 0 384V176L217.6 339.2C240.4 356.3 271.6 356.3 294.4 339.2L320.8 319.4C320.3 324.9 320 330.4 320 336z"/></svg>
